X: 12346
T: Falling Fruit
R: jig
M: 6/8
K: Gmajor
B2B dBA|GDE GAB|deg aga|~b3 age|
d2d BdB|AGF EFG|ABd edB|AGF G2A|
~B3 dBA|GAE GAB|deg aga|bd'b age|
d2d BdB|AGF EFG|ABd edB|AGF G2f|
|:g2g fed|efe dBA|GAB dBd|~e3 dBA|g2g fed|
efe dBA|1 GAB dBd|~e3 def:|2 GAB AGF|~G3 Ged||

